X: 5
T: The Destitution
R: reel
M: 4/4
L: 1/8
K: Amin
|:A2eA gAeA|gfef dfec|A2eA gAeA|dcBc dfec|
A2eA gAeA|gfef dfec|AcBd cedf|edBc A3G:||
|:EA A2 EAcA |EA A2 Bc d2|EA A2 EAcA |efed eA A2|
EA A2 EAcA|EA A2 Bc d2|ecdB cABG |efed eAAG:||


Tune 673	Setting 27952

